X:379
T:Reel 379
M:4/4
K:Gmaj
L:1/8
e>edB  (3ege dB| (3ege dB d2 (3Bcd |ee2g fddf|eaaf ggga| (3bc'd' ac' geef| (3efe dB dBd2|ee2d egde|gaba g2g2|bd'd'b g2ga|bee'd' e'd'ba|bd'd'b gabe'|e'd'ae' d'bac'|bc'd'b g2ga|be'e'd' e'd'ba| (3bc'd' ba gege|dBGB A2G2|
